public/cloud-icons/azure/data/ssis-integration-runtime.svg

<?xml version="1.0" encoding="UTF-8" standalone="no"?>
<!-- Generated by Microsoft Visio, SVG Export SSIS Integration Runtime.svg Page-1 -->

<svg
   xmlns:dc="http://purl.org/dc/elements/1.1/"
   xmlns:cc="http://creativecommons.org/ns#"
   xmlns:rdf="http://www.w3.org/1999/02/22-rdf-syntax-ns#"
   xmlns:svg="http://www.w3.org/2000/svg"
   xmlns="http://www.w3.org/2000/svg"
   xmlns:xlink="http://www.w3.org/1999/xlink"
   xmlns:sodipodi="http://sodipodi.sourceforge.net/DTD/sodipodi-0.dtd"
   xmlns:inkscape="http://www.inkscape.org/namespaces/inkscape"
   width="56.693001"
   height="56.694099"
   viewBox="0 0 56.692999 56.6941"
   xml:space="preserve"
   class="st13"
   version="1.1"
   id="svg161"
   sodipodi:docname="SSIS Integration Runtime.svg"
   style="font-size:12px;overflow:visible;color-interpolation-filters:sRGB;fill:none;fill-rule:evenodd;stroke-linecap:square;stroke-miterlimit:3"
   inkscape:version="0.92.5 (2060ec1f9f, 2020-04-08)"><metadata
   id="metadata165"><rdf:RDF><cc:Work
       rdf:about=""><dc:format>image/svg+xml</dc:format><dc:type
         rdf:resource="http://purl.org/dc/dcmitype/StillImage" /></cc:Work></rdf:RDF></metadata><sodipodi:namedview
   pagecolor="#ffffff"
   bordercolor="#666666"
   borderopacity="1"
   objecttolerance="10"
   gridtolerance="10"
   guidetolerance="10"
   inkscape:pageopacity="0"
   inkscape:pageshadow="2"
   inkscape:window-width="640"
   inkscape:window-height="480"
   id="namedview163"
   showgrid="false"
   inkscape:zoom="2.4486917"
   inkscape:cx="28.346461"
   inkscape:cy="14.173299"
   inkscape:window-x="0"
   inkscape:window-y="0"
   inkscape:window-maximized="0"
   inkscape:current-layer="svg161" />
	<style
   type="text/css"
   id="style2">
	<![CDATA[
		.st1 {fill:none;stroke:none;stroke-linecap:butt;stroke-width:0.48}
		.st2 {fill:url(#grad0-7);stroke:none;stroke-linecap:butt;stroke-width:0.48}
		.st3 {fill:#e8e8e8;stroke:none;stroke-linecap:butt;stroke-width:0.48}
		.st4 {fill:#50e6ff;stroke:none;stroke-linecap:butt;stroke-width:0.48}
		.st5 {fill:#198ab3;stroke:none;stroke-linecap:butt;stroke-width:0.48}
		.st6 {fill:url(#grad0-17);stroke:none;stroke-linecap:butt;stroke-width:0.48}
		.st7 {fill:#ffffff;stroke:none;stroke-linecap:butt;stroke-width:0.48}
		.st8 {fill:#ffffff}
		.st9 {stroke:none;stroke-linecap:butt;stroke-width:0.48}
		.st10 {fill:#212121;stroke:none;stroke-linecap:butt;stroke-width:0.48}
		.st11 {fill:#76bc2d;stroke:none;stroke-linecap:butt;stroke-width:0.48}
		.st12 {fill:#76bc2d}
		.st13 {fill:none;fill-rule:evenodd;font-size:12px;overflow:visible;stroke-linecap:square;stroke-miterlimit:3}
	]]>
	</style>

	<defs
   id="Patterns_And_Gradients">
		<linearGradient
   id="grad0-7"
   x1="0"
   y1="44.658502"
   x2="45.632801"
   y2="44.658502"
   gradientTransform="scale(0.93682613,1.0674339)"
   gradientUnits="userSpaceOnUse">
			<stop
   offset="0"
   stop-color="#005ba1"
   stop-opacity="1"
   id="stop4" />
			<stop
   offset="0.07"
   stop-color="#0060a9"
   stop-opacity="1"
   id="stop6" />
			<stop
   offset="0.36"
   stop-color="#0071c8"
   stop-opacity="1"
   id="stop8" />
			<stop
   offset="0.52"
   stop-color="#0078d4"
   stop-opacity="1"
   id="stop10" />
			<stop
   offset="0.64"
   stop-color="#0074cd"
   stop-opacity="1"
   id="stop12" />
			<stop
   offset="0.82"
   stop-color="#006abb"
   stop-opacity="1"
   id="stop14" />
			<stop
   offset="1"
   stop-color="#005ba1"
   stop-opacity="1"
   id="stop16" />
		</linearGradient>
		<linearGradient
   id="grad0-17"
   x1="0"
   y1="0"
   x2="1"
   y2="0"
   gradientTransform="rotate(-90,0.5,0.5)">
			<stop
   offset="0"
   stop-color="#5e9624"
   stop-opacity="1"
   id="stop19" />
			<stop
   offset="0.255"
   stop-color="#619c25"
   stop-opacity="1"
   id="stop21" />
			<stop
   offset="0.51"
   stop-color="#76bc2d"
   stop-opacity="1"
   id="stop23" />
			<stop
   offset="0.91"
   stop-color="#86d633"
   stop-opacity="1"
   id="stop25" />
			<stop
   offset="1"
   stop-color="#86d633"
   stop-opacity="1"
   id="stop27" />
		</linearGradient>
	<linearGradient
   inkscape:collect="always"
   xlink:href="#grad0-17"
   id="linearGradient4675"
   gradientTransform="scale(1.0024973,0.99750888)"
   x1="0"
   y1="75.128952"
   x2="21.489733"
   y2="75.128952"
   gradientUnits="userSpaceOnUse" /><linearGradient
   inkscape:collect="always"
   xlink:href="#grad0-17"
   id="linearGradient4677"
   gradientTransform="scale(1.0024973,0.99750888)"
   x1="0"
   y1="75.128952"
   x2="21.489733"
   y2="75.128952"
   gradientUnits="userSpaceOnUse" /></defs>
	<g
   id="g159"
   transform="translate(-5.66929,-5.6682)">
		<title
   id="title31">Page-1</title>
		<g
   id="group20151-1"
   transform="translate(5.66929,-34.0157)">
			<title
   id="title33">SSIS Integration Runtime.20151</title>
			<g
   id="shape20152-2">
				<title
   id="title35">Sheet.20152</title>
				<rect
   x="0"
   y="39.967098"
   width="56.692902"
   height="56.4109"
   class="st1"
   id="rect37"
   style="fill:none;stroke:none;stroke-width:0.47999999;stroke-linecap:butt" />
			</g>
			<g
   id="shape20153-4"
   transform="translate(7.13991,-0.282054)">
				<title
   id="title40">Sheet.20153</title>
				<path
   d="M 21.38,55.36 C 9.57,55.36 0,52.05 0,47.67 v 41.01 c 0,4.21 9.4,7.63 21.08,7.7 h 0.3 c 11.8,0 21.37,-3.32 21.37,-7.7 V 47.67 c 0,4.28 -9.57,7.69 -21.37,7.69 z"
   class="st2"
   id="path42"
   inkscape:connector-curvature="0"
   style="fill:url(#grad0-7);stroke:none;stroke-width:0.47999999;stroke-linecap:butt" />
			</g>
			<g
   id="shape20154-8"
   transform="translate(7.13764,-41.2961)">
				<title
   id="title45">Sheet.20154</title>
				<path
   d="m 42.75,88.68 c 0,4.28 -9.57,7.7 -21.37,7.7 C 9.58,96.38 0,93.06 0,88.68 c 0,-4.38 9.57,-7.7 21.38,-7.7 11.81,0 21.37,3.32 21.37,7.7 z"
   class="st3"
   id="path47"
   inkscape:connector-curvature="0"
   style="fill:#e8e8e8;stroke:none;stroke-width:0.47999999;stroke-linecap:butt" />
			</g>
			<g
   id="shape20155-10"
   transform="translate(12.1068,-44.7141)">
				<title
   id="title50">Sheet.20155</title>
				<path
   d="m 32.81,91.47 c 0,2.72 -7.37,4.91 -16.4,4.91 C 7.37,96.38 0,94.19 0,91.47 c 0,-2.72 7.37,-4.88 16.41,-4.88 9.03,0 16.4,2.19 16.4,4.88 z"
   class="st4"
   id="path52"
   inkscape:connector-curvature="0"
   style="fill:#50e6ff;stroke:none;stroke-width:0.47999999;stroke-linecap:butt" />
			</g>
			<g
   id="shape20156-12"
   transform="translate(15.5441,-44.7141)">
				<title
   id="title55">Sheet.20156</title>
				<path
   d="M 12.97,92.69 A 38.5211,38.3295 -180 0 0 0,94.59 38.0772,37.8878 -180 0 0 12.97,96.38 37.1792,36.9942 -180 0 0 25.94,94.45 39.4651,39.2687 -180 0 0 12.97,92.69 Z"
   class="st5"
   id="path57"
   inkscape:connector-curvature="0"
   style="fill:#198ab3;stroke:none;stroke-width:0.47999999;stroke-linecap:butt" />
			</g>
			<g
   id="shape20157-14"
   transform="translate(35.1496,-0.988882)">
				<title
   id="title60">Sheet.20157</title>
				<ellipse
   cx="10.7717"
   cy="85.659897"
   rx="10.7717"
   ry="10.7181"
   class="st6"
   id="ellipse62"
   style="fill:url(#linearGradient4675);stroke:none;stroke-width:0.47999999;stroke-linecap:butt" />
			</g>
			<g
   id="shape20158-18"
   transform="translate(37.7274,-10.9533)">
				<title
   id="title65">Sheet.20158</title>
				<rect
   x="0"
   y="94.870697"
   width="2.0392399"
   height="1.5073"
   class="st7"
   id="rect67"
   style="fill:#ffffff;stroke:none;stroke-width:0.47999999;stroke-linecap:butt" />
			</g>
			<g
   id="shape20159-20"
   transform="translate(52.0764,-10.9533)">
				<title
   id="title70">Sheet.20159</title>
				<rect
   x="0"
   y="94.870697"
   width="2.0392399"
   height="1.5073"
   class="st7"
   id="rect72"
   style="fill:#ffffff;stroke:none;stroke-width:0.47999999;stroke-linecap:butt" />
			</g>
			<g
   id="shape20160-22"
   transform="translate(39.7474,-7.11172)">
				<title
   id="title75">Sheet.20160</title>
				<path
   d="m 6.69,96.33 v -3.2 H 3.4 V 87.24 L 1.52,87.25 A 1.53071,1.52309 -180 0 0 0,88.78 l 0.04,6.09 a 1.53071,1.52309 -180 0 0 1.53,1.51 h 0.01 z"
   class="st8"
   id="path77"
   inkscape:connector-curvature="0"
   style="fill:#ffffff" />
				<path
   d="m 6.69,96.33 v -3.2 H 3.4 V 87.24 L 1.52,87.25 A 1.53071,1.52309 -180 0 0 0,88.78 l 0.04,6.09 a 1.53071,1.52309 -180 0 0 1.53,1.51 h 0.01"
   class="st9"
   id="path79"
   inkscape:connector-curvature="0"
   style="stroke:none;stroke-width:0.47999999;stroke-linecap:butt" />
			</g>
			<g
   id="shape20161-25"
   transform="translate(45.504,-7.15741)">
				<title
   id="title82">Sheet.20161</title>
				<path
   d="m 0,87.28 v 3.55 h 3.3 v 5.55 L 5.07,96.37 A 1.53071,1.52309 -180 0 0 6.59,94.83 L 6.55,88.75 A 1.53071,1.52309 -180 0 0 5.02,87.24 H 5.01 Z"
   class="st8"
   id="path84"
   inkscape:connector-curvature="0"
   style="fill:#ffffff" />
				<path
   d="m 0,87.28 v 3.55 h 3.3 v 5.55 L 5.07,96.37 A 1.53071,1.52309 -180 0 0 6.59,94.83 L 6.55,88.75 A 1.53071,1.52309 -180 0 0 5.02,87.24 H 5.01"
   class="st9"
   id="path86"
   inkscape:connector-curvature="0"
   style="stroke:none;stroke-width:0.47999999;stroke-linecap:butt" />
			</g>
			<g
   id="shape20162-28"
   transform="translate(35.1496,-0.988882)">
				<title
   id="title89">Sheet.20162</title>
				<ellipse
   cx="10.7717"
   cy="85.659897"
   rx="10.7717"
   ry="10.7181"
   class="st6"
   id="ellipse91"
   style="fill:url(#linearGradient4677);stroke:none;stroke-width:0.47999999;stroke-linecap:butt" />
			</g>
			<g
   id="shape20163-31"
   transform="translate(37.7274,-10.9533)">
				<title
   id="title94">Sheet.20163</title>
				<rect
   x="0"
   y="94.870697"
   width="2.0392399"
   height="1.5073"
   class="st7"
   id="rect96"
   style="fill:#ffffff;stroke:none;stroke-width:0.47999999;stroke-linecap:butt" />
			</g>
			<g
   id="shape20164-33"
   transform="translate(52.0764,-10.9533)">
				<title
   id="title99">Sheet.20164</title>
				<rect
   x="0"
   y="94.870697"
   width="2.0392399"
   height="1.5073"
   class="st7"
   id="rect101"
   style="fill:#ffffff;stroke:none;stroke-width:0.47999999;stroke-linecap:butt" />
			</g>
			<g
   id="shape20165-35"
   transform="translate(39.7474,-7.11172)">
				<title
   id="title104">Sheet.20165</title>
				<path
   d="m 6.69,96.33 v -3.2 H 3.4 V 87.24 L 1.52,87.25 A 1.53071,1.52309 -180 0 0 0,88.78 l 0.04,6.09 a 1.53071,1.52309 -180 0 0 1.53,1.51 h 0.01 z"
   class="st8"
   id="path106"
   inkscape:connector-curvature="0"
   style="fill:#ffffff" />
				<path
   d="m 6.69,96.33 v -3.2 H 3.4 V 87.24 L 1.52,87.25 A 1.53071,1.52309 -180 0 0 0,88.78 l 0.04,6.09 a 1.53071,1.52309 -180 0 0 1.53,1.51 h 0.01"
   class="st9"
   id="path108"
   inkscape:connector-curvature="0"
   style="stroke:none;stroke-width:0.47999999;stroke-linecap:butt" />
			</g>
			<g
   id="shape20166-38"
   transform="translate(45.504,-7.15741)">
				<title
   id="title111">Sheet.20166</title>
				<path
   d="m 0,87.28 v 3.55 h 3.3 v 5.55 L 5.07,96.37 A 1.53071,1.52309 -180 0 0 6.59,94.83 L 6.55,88.75 A 1.53071,1.52309 -180 0 0 5.02,87.24 H 5.01 Z"
   class="st8"
   id="path113"
   inkscape:connector-curvature="0"
   style="fill:#ffffff" />
				<path
   d="m 0,87.28 v 3.55 h 3.3 v 5.55 L 5.07,96.37 A 1.53071,1.52309 -180 0 0 6.59,94.83 L 6.55,88.75 A 1.53071,1.52309 -180 0 0 5.02,87.24 H 5.01"
   class="st9"
   id="path115"
   inkscape:connector-curvature="0"
   style="stroke:none;stroke-width:0.47999999;stroke-linecap:butt" />
			</g>
			<g
   id="group20167-41"
   transform="translate(32.5134,-1.70756)">
				<title
   id="title118">Sheet.20167</title>
				<g
   id="shape20168-42">
					<title
   id="title120">Sheet.20168</title>
					<ellipse
   cx="11.2059"
   cy="85.227798"
   rx="11.2059"
   ry="11.1502"
   class="st7"
   id="ellipse122"
   style="fill:#ffffff;stroke:none;stroke-width:0.47999999;stroke-linecap:butt" />
				</g>
				<g
   id="shape20169-44"
   transform="translate(1.70135,-2.06859)">
					<title
   id="title125">Sheet.20169</title>
					<path
   d="M 9.51,77.84 A 9.50513,9.45784 0 1 1 0,87.3 9.50457,9.45728 0 0 1 9.51,77.84 Z m 0,-3.39 A 12.9067,12.8425 -180 1 0 22.41,87.3 12.9209,12.8566 -180 0 0 9.51,74.45 Z"
   class="st10"
   id="path127"
   inkscape:connector-curvature="0"
   style="fill:#212121;stroke:none;stroke-width:0.47999999;stroke-linecap:butt" />
				</g>
			</g>
			<g
   id="group20170-46"
   transform="translate(35.6984,-8.17563)">
				<title
   id="title131">Sheet.20170</title>
				<g
   id="shape20171-47"
   transform="translate(0,-3.85343)">
					<title
   id="title133">Sheet.20171</title>
					<rect
   x="0"
   y="94.866096"
   width="2.04491"
   height="1.5118099"
   class="st11"
   id="rect135"
   style="fill:#76bc2d;stroke:none;stroke-width:0.47999999;stroke-linecap:butt" />
				</g>
				<g
   id="shape20172-49"
   transform="translate(14.3887,-3.85343)">
					<title
   id="title138">Sheet.20172</title>
					<rect
   x="0"
   y="94.866096"
   width="2.04491"
   height="1.5118099"
   class="st11"
   id="rect140"
   style="fill:#76bc2d;stroke:none;stroke-width:0.47999999;stroke-linecap:butt" />
				</g>
				<g
   id="shape20173-51"
   transform="translate(2.0245)">
					<title
   id="title143">Sheet.20173</title>
					<path
   d="M 6.71,96.33 V 93.12 H 3.4 V 87.21 L 1.52,87.22 A 1.53071,1.52309 -180 0 0 0,88.76 l 0.04,6.1 a 1.53468,1.52704 -180 0 0 1.53,1.52 h 0.01 z"
   class="st12"
   id="path145"
   inkscape:connector-curvature="0"
   style="fill:#76bc2d" />
					<path
   d="M 6.71,96.33 V 93.12 H 3.4 V 87.21 L 1.52,87.22 A 1.53071,1.52309 -180 0 0 0,88.76 l 0.04,6.1 a 1.53468,1.52704 -180 0 0 1.53,1.52 h 0.01"
   class="st9"
   id="path147"
   inkscape:connector-curvature="0"
   style="stroke:none;stroke-width:0.47999999;stroke-linecap:butt" />
				</g>
				<g
   id="shape20174-54"
   transform="translate(7.79868,-0.0490774)">
					<title
   id="title150">Sheet.20174</title>
					<path
   d="m 0,87.25 v 3.57 h 3.31 v 5.56 L 5.09,96.37 A 1.53071,1.52309 -180 0 0 6.61,94.83 L 6.57,88.73 A 1.53524,1.52761 -180 0 0 5.04,87.21 H 5.03 Z"
   class="st12"
   id="path152"
   inkscape:connector-curvature="0"
   style="fill:#76bc2d" />
					<path
   d="m 0,87.25 v 3.57 h 3.31 v 5.56 L 5.09,96.37 A 1.53071,1.52309 -180 0 0 6.61,94.83 L 6.57,88.73 A 1.53524,1.52761 -180 0 0 5.04,87.21 H 5.03"
   class="st9"
   id="path154"
   inkscape:connector-curvature="0"
   style="stroke:none;stroke-width:0.47999999;stroke-linecap:butt" />
				</g>
			</g>
		</g>
	</g>
</svg>

<svg xmlns="http://www.w3.org/2000/svg" xmlns:xlink="http://www.w3.org/1999/xlink" xml:space="preserve" width="56.693" height="56.694" style="font-size:12px;overflow:visible;color-interpolation-filters:sRGB;fill-rule:evenodd;stroke-linecap:square;stroke-miterlimit:3" viewBox="0 0 56.693 56.694"><defs><linearGradient id="b" x1="0" x2="45.633" y1="44.659" y2="44.659" gradientTransform="scale(.93683 1.06743)" gradientUnits="userSpaceOnUse"><stop offset="0" stop-color="#005ba1"/><stop offset=".07" stop-color="#0060a9"/><stop offset=".36" stop-color="#0071c8"/><stop offset=".52" stop-color="#0078d4"/><stop offset=".64" stop-color="#0074cd"/><stop offset=".82" stop-color="#006abb"/><stop offset="1" stop-color="#005ba1"/></linearGradient><linearGradient id="a" x1="0" x2="1" y1="0" y2="0" gradientTransform="rotate(-90 .5 .5)"><stop offset="0" stop-color="#5e9624"/><stop offset=".255" stop-color="#619c25"/><stop offset=".51" stop-color="#76bc2d"/><stop offset=".91" stop-color="#86d633"/><stop offset="1" stop-color="#86d633"/></linearGradient><linearGradient xlink:href="#a" id="c" x1="0" x2="21.49" y1="75.129" y2="75.129" gradientTransform="scale(1.0025 .9975)" gradientUnits="userSpaceOnUse"/><linearGradient xlink:href="#a" id="d" x1="0" x2="21.49" y1="75.129" y2="75.129" gradientTransform="scale(1.0025 .9975)" gradientUnits="userSpaceOnUse"/></defs><g transform="translate(-5.67 -5.668)"><title>Page-1</title><g transform="translate(5.67 -34.016)"><title>SSIS Integration Runtime.20151</title><title>Sheet.20152</title><path d="M0 39.967h56.693v56.411H0z" style="fill:none;stroke:none;stroke-width:.47999999;stroke-linecap:butt"/><g transform="translate(7.14 -.282)"><title>Sheet.20153</title><path d="M21.38 55.36C9.57 55.36 0 52.05 0 47.67v41.01c0 4.21 9.4 7.63 21.08 7.7h.3c11.8 0 21.37-3.32 21.37-7.7V47.67c0 4.28-9.57 7.69-21.37 7.69" style="fill:url(#b);stroke:none;stroke-width:.47999999;stroke-linecap:butt"/></g><g transform="translate(7.138 -41.296)"><title>Sheet.20154</title><path d="M42.75 88.68c0 4.28-9.57 7.7-21.37 7.7S0 93.06 0 88.68s9.57-7.7 21.38-7.7 21.37 3.32 21.37 7.7" style="fill:#e8e8e8;stroke:none;stroke-width:.47999999;stroke-linecap:butt"/></g><g transform="translate(12.107 -44.714)"><title>Sheet.20155</title><path d="M32.81 91.47c0 2.72-7.37 4.91-16.4 4.91C7.37 96.38 0 94.19 0 91.47s7.37-4.88 16.41-4.88c9.03 0 16.4 2.19 16.4 4.88" style="fill:#50e6ff;stroke:none;stroke-width:.47999999;stroke-linecap:butt"/></g><g transform="translate(15.544 -44.714)"><title>Sheet.20156</title><path d="M12.97 92.69A38.521 38.33-180 0 0 0 94.59a38.077 37.888-180 0 0 12.97 1.79 37.18 36.994-180 0 0 12.97-1.93 39.465 39.269-180 0 0-12.97-1.76" style="fill:#198ab3;stroke:none;stroke-width:.47999999;stroke-linecap:butt"/></g><g transform="translate(35.15 -.989)"><title>Sheet.20157</title><ellipse cx="10.772" cy="85.66" rx="10.772" ry="10.718" style="fill:url(#c);stroke:none;stroke-width:.47999999;stroke-linecap:butt"/></g><g transform="translate(37.727 -10.953)"><title>Sheet.20158</title><path d="M0 94.871h2.039v1.507H0z" style="fill:#fff;stroke:none;stroke-width:.47999999;stroke-linecap:butt"/></g><g transform="translate(52.076 -10.953)"><title>Sheet.20159</title><path d="M0 94.871h2.039v1.507H0z" style="fill:#fff;stroke:none;stroke-width:.47999999;stroke-linecap:butt"/></g><g transform="translate(39.747 -7.112)"><title>Sheet.20160</title><path d="M6.69 96.33v-3.2H3.4v-5.89l-1.88.01A1.53 1.523-180 0 0 0 88.78l.04 6.09a1.53 1.523-180 0 0 1.53 1.51h.01z" style="fill:#fff"/><path d="M6.69 96.33v-3.2H3.4v-5.89l-1.88.01A1.53 1.523-180 0 0 0 88.78l.04 6.09a1.53 1.523-180 0 0 1.53 1.51h.01" style="stroke:none;stroke-width:.47999999;stroke-linecap:butt"/></g><g transform="translate(45.504 -7.157)"><title>Sheet.20161</title><path d="M0 87.28v3.55h3.3v5.55l1.77-.01a1.53 1.523-180 0 0 1.52-1.54l-.04-6.08a1.53 1.523-180 0 0-1.53-1.51h-.01Z" style="fill:#fff"/><path d="M0 87.28v3.55h3.3v5.55l1.77-.01a1.53 1.523-180 0 0 1.52-1.54l-.04-6.08a1.53 1.523-180 0 0-1.53-1.51h-.01" style="stroke:none;stroke-width:.47999999;stroke-linecap:butt"/></g><g transform="translate(35.15 -.989)"><title>Sheet.20162</title><ellipse cx="10.772" cy="85.66" rx="10.772" ry="10.718" style="fill:url(#d);stroke:none;stroke-width:.47999999;stroke-linecap:butt"/></g><g transform="translate(37.727 -10.953)"><title>Sheet.20163</title><path d="M0 94.871h2.039v1.507H0z" style="fill:#fff;stroke:none;stroke-width:.47999999;stroke-linecap:butt"/></g><g transform="translate(52.076 -10.953)"><title>Sheet.20164</title><path d="M0 94.871h2.039v1.507H0z" style="fill:#fff;stroke:none;stroke-width:.47999999;stroke-linecap:butt"/></g><g transform="translate(39.747 -7.112)"><title>Sheet.20165</title><path d="M6.69 96.33v-3.2H3.4v-5.89l-1.88.01A1.53 1.523-180 0 0 0 88.78l.04 6.09a1.53 1.523-180 0 0 1.53 1.51h.01z" style="fill:#fff"/><path d="M6.69 96.33v-3.2H3.4v-5.89l-1.88.01A1.53 1.523-180 0 0 0 88.78l.04 6.09a1.53 1.523-180 0 0 1.53 1.51h.01" style="stroke:none;stroke-width:.47999999;stroke-linecap:butt"/></g><g transform="translate(45.504 -7.157)"><title>Sheet.20166</title><path d="M0 87.28v3.55h3.3v5.55l1.77-.01a1.53 1.523-180 0 0 1.52-1.54l-.04-6.08a1.53 1.523-180 0 0-1.53-1.51h-.01Z" style="fill:#fff"/><path d="M0 87.28v3.55h3.3v5.55l1.77-.01a1.53 1.523-180 0 0 1.52-1.54l-.04-6.08a1.53 1.523-180 0 0-1.53-1.51h-.01" style="stroke:none;stroke-width:.47999999;stroke-linecap:butt"/></g><g transform="translate(32.513 -1.708)"><title>Sheet.20167</title><title>Sheet.20168</title><ellipse cx="11.206" cy="85.228" rx="11.206" ry="11.15" style="fill:#fff;stroke:none;stroke-width:.47999999;stroke-linecap:butt"/><g transform="translate(1.701 -2.069)"><title>Sheet.20169</title><path d="M9.51 77.84A9.505 9.458 0 1 1 0 87.3a9.505 9.457 0 0 1 9.51-9.46m0-3.39a12.907 12.843-180 1 0 12.9 12.85 12.92 12.857-180 0 0-12.9-12.85" style="fill:#212121;stroke:none;stroke-width:.47999999;stroke-linecap:butt"/></g></g><g transform="translate(35.698 -8.176)"><title>Sheet.20170</title><g transform="translate(0 -3.853)"><title>Sheet.20171</title><path d="M0 94.866h2.045v1.512H0z" style="fill:#76bc2d;stroke:none;stroke-width:.47999999;stroke-linecap:butt"/></g><g transform="translate(14.389 -3.853)"><title>Sheet.20172</title><path d="M0 94.866h2.045v1.512H0z" style="fill:#76bc2d;stroke:none;stroke-width:.47999999;stroke-linecap:butt"/></g><g transform="translate(2.025)"><title>Sheet.20173</title><path d="M6.71 96.33v-3.21H3.4v-5.91l-1.88.01A1.53 1.523-180 0 0 0 88.76l.04 6.1a1.535 1.527-180 0 0 1.53 1.52h.01z" style="fill:#76bc2d"/><path d="M6.71 96.33v-3.21H3.4v-5.91l-1.88.01A1.53 1.523-180 0 0 0 88.76l.04 6.1a1.535 1.527-180 0 0 1.53 1.52h.01" style="stroke:none;stroke-width:.47999999;stroke-linecap:butt"/></g><g transform="translate(7.799 -.05)"><title>Sheet.20174</title><path d="M0 87.25v3.57h3.31v5.56l1.78-.01a1.53 1.523-180 0 0 1.52-1.54l-.04-6.1a1.535 1.528-180 0 0-1.53-1.52h-.01Z" style="fill:#76bc2d"/><path d="M0 87.25v3.57h3.31v5.56l1.78-.01a1.53 1.523-180 0 0 1.52-1.54l-.04-6.1a1.535 1.528-180 0 0-1.53-1.52h-.01" style="stroke:none;stroke-width:.47999999;stroke-linecap:butt"/></g></g></g></g></svg>
